public/flags/VG.svg

<svg fill="none" height="53" viewBox="0 0 61 53" width="61" xmlns="http://www.w3.org/2000/svg" xmlns:xlink="http://www.w3.org/1999/xlink"><mask id="a" height="43" maskUnits="userSpaceOnUse" width="59" x="1" y="3"><rect fill="#fff" height="42.5" rx="4.24286" width="59" x="1" y="3"/></mask><mask id="b" height="21" maskUnits="userSpaceOnUse" width="15" x="37" y="14"><path clip-rule="evenodd" d="m37.5239 24.2499c0-2.326 0-5.0764 0-7.0899 0-1.5621 1.2664-2.8267 2.8286-2.8267h8.3905c1.5621 0 2.8285 1.2645 2.8285 2.8267v7.0899c0 7.0834-7.0238 9.9167-7.0238 9.9167s-7.0238-2.8333-7.0238-9.9167z" fill="#fff" fill-rule="evenodd"/></mask><rect fill="#fff" height="42.5" rx="4.24286" width="59" x="1" y="3"/><g mask="url(#a)"><path d="m1 3h59v42.5h-59z" fill="#07319c"/><path clip-rule="evenodd" d="m37.5239 24.2499c0-2.326 0-5.0764 0-7.0899 0-1.5621 1.2664-2.8267 2.8286-2.8267h8.3905c1.5621 0 2.8285 1.2645 2.8285 2.8267v7.0899c0 7.0834-7.0238 9.9167-7.0238 9.9167s-7.0238-2.8333-7.0238-9.9167z" fill="#008339" fill-rule="evenodd"/><g clip-rule="evenodd" fill-rule="evenodd" mask="url(#b)"><path d="m48.762 18.5833c0 .7824-.6289 1.4167-1.4048 1.4167-.7758 0-1.4047-.6343-1.4047-1.4167s.6289-1.4167 1.4047-1.4167c.7759 0 1.4048.6343 1.4048 1.4167zm-7.0237 1.4167c.7758 0 1.4047-.6343 1.4047-1.4167s-.6289-1.4166-1.4047-1.4166c-.7759 0-1.4048.6342-1.4048 1.4166s.6289 1.4167 1.4048 1.4167zm0 2.8333c.7758 0 1.4047-.6343 1.4047-1.4167s-.6289-1.4167-1.4047-1.4167c-.7759 0-1.4048.6343-1.4048 1.4167s.6289 1.4167 1.4048 1.4167zm1.4047 1.4166c0 .7813-.6271 1.4149-1.4015 1.4167.7744.0018 1.4015.6354 1.4015 1.4166 0 .7825-.6289 1.4167-1.4047 1.4167-.7759 0-1.4048-.6342-1.4048-1.4167 0-.7812.6272-1.4148 1.4015-1.4166-.7743-.0018-1.4015-.6354-1.4015-1.4167 0-.7824.6289-1.4166 1.4048-1.4166.7758 0 1.4047.6342 1.4047 1.4166zm5.619 2.8333c0 .7825-.6289 1.4167-1.4048 1.4167-.7758 0-1.4047-.6342-1.4047-1.4167 0-.7812.6271-1.4148 1.4015-1.4166-.7744-.0018-1.4015-.6354-1.4015-1.4167 0-.7824.6289-1.4166 1.4047-1.4166.7759 0 1.4048.6342 1.4048 1.4166 0 .7813-.6271 1.4149-1.4015 1.4167.7744.0018 1.4015.6354 1.4015 1.4166zm0-5.6666c0 .7824-.6289 1.4167-1.4048 1.4167-.7758 0-1.4047-.6343-1.4047-1.4167s.6289-1.4167 1.4047-1.4167c.7759 0 1.4048.6343 1.4048 1.4167z" fill="#ffd033"/><path d="m44.5476 27.0832c.7758 0 1.4047-1.9027 1.4047-4.2499 0-2.3473-.6289-4.25-1.4047-4.25s-1.4048 1.9027-1.4048 4.25c0 2.3472.629 4.2499 1.4048 4.2499z" fill="#fff"/></g><path d="m36.1191 31.3333c0 2.702 3.8376 4.25 8.4286 4.25 4.5911 0 8.4286-1.548 8.4286-4.25 0-.7824-.629-1.4167-1.4048-1.4167s-1.4047.6343-1.4047 1.4167c0 .0271-.3405.3518-1.1742.6881-1.1317.4565-2.726.7286-4.4449.7286-1.7188 0-3.3132-.2721-4.4449-.7286-.8336-.3363-1.1741-.661-1.1741-.6881 0-.7824-.629-1.4167-1.4048-1.4167s-1.4048.6343-1.4048 1.4167z" fill="#ffd033"/><path d="m1 2.29286h-1.899402l1.436963 1.24212 9.588639 8.28852v2.1477l-9.539515 6.8717-.293828.2116v.3622 1.4166 1.2816l1.084203-.6833 11.06534-6.9745h2.377l9.526 6.862c.1998.1439.4399.2214.6862.2214 1.0876 0 1.5906-1.3511.7678-2.0623l-8.6399-7.4683v-2.1478l9.2457-6.66c.369-.26579.5877-.6928.5877-1.14756v-1.05454-1.2816l-1.0842.68337-11.0653 6.97442h-2.3771l-9.64822-6.94997-.18514-.13336h-.22818z" fill="#db1e36" stroke="#fff" stroke-width="1.41429"/><g clip-rule="evenodd" fill-rule="evenodd"><path d="m1 10.0833v5.6667h9.8333v7.0857c0 .7811.6332 1.4143 1.4143 1.4143h2.7905c.7811 0 1.4143-.6332 1.4143-1.4143v-7.0857h9.8238c.7811 0 1.4143-.6332 1.4143-1.4143v-2.8381c0-.7811-.6332-1.4143-1.4143-1.4143h-9.8238v-7.0833h-5.6191v7.0833z" fill="#fff"/><path d="m1 11.5h11.2381v-1.4167-7.0833h2.8095v7.0833 1.4167h11.2381v2.8333h-11.2381v1.4167 7.0833h-2.8095v-7.0833-1.4167h-11.2381z" fill="#db1e36"/></g></g></svg>

<svg width="61" height="53" viewBox="0 0 61 53" fill="none" xmlns="http://www.w3.org/2000/svg">
<rect x="1" y="3" width="59" height="42.5" rx="4.24286" fill="white"/>
<mask id="mask0" mask-type="alpha" maskUnits="userSpaceOnUse" x="1" y="3" width="59" height="43">
<rect x="1" y="3" width="59" height="42.5" rx="4.24286" fill="white"/>
</mask>
<g mask="url(#mask0)">
<rect x="1" y="3" width="59" height="42.5" fill="#07319C"/>
<path fill-rule="evenodd" clip-rule="evenodd" d="M37.5239 24.2499C37.5239 21.9239 37.5239 19.1735 37.5239 17.16C37.5239 15.5979 38.7903 14.3333 40.3525 14.3333H48.743C50.3051 14.3333 51.5715 15.5978 51.5715 17.16C51.5715 19.1735 51.5715 21.9239 51.5715 24.2499C51.5715 31.3333 44.5477 34.1666 44.5477 34.1666C44.5477 34.1666 37.5239 31.3333 37.5239 24.2499Z" fill="#008339"/>
<mask id="mask1" mask-type="alpha" maskUnits="userSpaceOnUse" x="37" y="14" width="15" height="21">
<path fill-rule="evenodd" clip-rule="evenodd" d="M37.5239 24.2499C37.5239 21.9239 37.5239 19.1735 37.5239 17.16C37.5239 15.5979 38.7903 14.3333 40.3525 14.3333H48.743C50.3051 14.3333 51.5715 15.5978 51.5715 17.16C51.5715 19.1735 51.5715 21.9239 51.5715 24.2499C51.5715 31.3333 44.5477 34.1666 44.5477 34.1666C44.5477 34.1666 37.5239 31.3333 37.5239 24.2499Z" fill="white"/>
</mask>
<g mask="url(#mask1)">
<path fill-rule="evenodd" clip-rule="evenodd" d="M48.762 18.5833C48.762 19.3657 48.1331 20 47.3572 20C46.5814 20 45.9525 19.3657 45.9525 18.5833C45.9525 17.8009 46.5814 17.1666 47.3572 17.1666C48.1331 17.1666 48.762 17.8009 48.762 18.5833ZM41.7383 20C42.5141 20 43.143 19.3657 43.143 18.5833C43.143 17.8009 42.5141 17.1667 41.7383 17.1667C40.9624 17.1667 40.3335 17.8009 40.3335 18.5833C40.3335 19.3657 40.9624 20 41.7383 20ZM41.7383 22.8333C42.5141 22.8333 43.143 22.199 43.143 21.4166C43.143 20.6342 42.5141 19.9999 41.7383 19.9999C40.9624 19.9999 40.3335 20.6342 40.3335 21.4166C40.3335 22.199 40.9624 22.8333 41.7383 22.8333ZM43.143 24.2499C43.143 25.0312 42.5159 25.6648 41.7415 25.6666C42.5159 25.6684 43.143 26.302 43.143 27.0832C43.143 27.8657 42.5141 28.4999 41.7383 28.4999C40.9624 28.4999 40.3335 27.8657 40.3335 27.0832C40.3335 26.302 40.9607 25.6684 41.735 25.6666C40.9607 25.6648 40.3335 25.0312 40.3335 24.2499C40.3335 23.4675 40.9624 22.8333 41.7383 22.8333C42.5141 22.8333 43.143 23.4675 43.143 24.2499ZM48.762 27.0832C48.762 27.8657 48.1331 28.4999 47.3572 28.4999C46.5814 28.4999 45.9525 27.8657 45.9525 27.0832C45.9525 26.302 46.5796 25.6684 47.354 25.6666C46.5796 25.6648 45.9525 25.0312 45.9525 24.2499C45.9525 23.4675 46.5814 22.8333 47.3572 22.8333C48.1331 22.8333 48.762 23.4675 48.762 24.2499C48.762 25.0312 48.1349 25.6648 47.3605 25.6666C48.1349 25.6684 48.762 26.302 48.762 27.0832ZM48.762 21.4166C48.762 22.199 48.1331 22.8333 47.3572 22.8333C46.5814 22.8333 45.9525 22.199 45.9525 21.4166C45.9525 20.6342 46.5814 19.9999 47.3572 19.9999C48.1331 19.9999 48.762 20.6342 48.762 21.4166Z" fill="#FFD033"/>
<path fill-rule="evenodd" clip-rule="evenodd" d="M44.5476 27.0832C45.3234 27.0832 45.9523 25.1805 45.9523 22.8333C45.9523 20.486 45.3234 18.5833 44.5476 18.5833C43.7718 18.5833 43.1428 20.486 43.1428 22.8333C43.1428 25.1805 43.7718 27.0832 44.5476 27.0832Z" fill="white"/>
</g>
<path d="M36.1191 31.3333C36.1191 34.0353 39.9567 35.5833 44.5477 35.5833C49.1388 35.5833 52.9763 34.0353 52.9763 31.3333C52.9763 30.5509 52.3473 29.9166 51.5715 29.9166C50.7957 29.9166 50.1668 30.5509 50.1668 31.3333C50.1668 31.3604 49.8263 31.6851 48.9926 32.0214C47.8609 32.4779 46.2666 32.75 44.5477 32.75C42.8289 32.75 41.2345 32.4779 40.1028 32.0214C39.2692 31.6851 38.9287 31.3604 38.9287 31.3333C38.9287 30.5509 38.2997 29.9166 37.5239 29.9166C36.7481 29.9166 36.1191 30.5509 36.1191 31.3333V31.3333Z" fill="#FFD033"/>
<path d="M1 2.29286H-0.899402L0.537561 3.53498L10.1262 11.8235V13.9712L0.586685 20.8429L0.292857 21.0545V21.4167V22.8333V24.1149L1.37706 23.4316L12.4424 16.4571H14.8194L24.3454 23.3191C24.5452 23.463 24.7853 23.5405 25.0316 23.5405C26.1192 23.5405 26.6222 22.1894 25.7994 21.4782L17.1595 14.0099V11.8621L26.4052 5.2021C26.7742 4.93631 26.9929 4.5093 26.9929 4.05454V3V1.7184L25.9087 2.40177L14.8434 9.37619H12.4663L2.81808 2.42622L2.63294 2.29286H2.40476H1Z" fill="#DB1E36" stroke="white" stroke-width="1.41429"/>
<path fill-rule="evenodd" clip-rule="evenodd" d="M1 10.0833V15.75H10.8333V22.8357C10.8333 23.6168 11.4665 24.25 12.2476 24.25H15.0381C15.8192 24.25 16.4524 23.6168 16.4524 22.8357V15.75H26.2762C27.0573 15.75 27.6905 15.1168 27.6905 14.3357V11.4976C27.6905 10.7165 27.0573 10.0833 26.2762 10.0833H16.4524V3H10.8333V10.0833H1Z" fill="white"/>
<path fill-rule="evenodd" clip-rule="evenodd" d="M1 11.5H12.2381V10.0833V3H15.0476V10.0833V11.5H26.2857V14.3333H15.0476V15.75V22.8333H12.2381V15.75V14.3333H1V11.5Z" fill="#DB1E36"/>
</g>
</svg>
